!!!SOCIAL_FUNCTION:	songs of war
!!!PDT:	1913
!!!OTL: No_41_Victory_Song.krn
!!!REG: Great_Lakes
!!!LANG: Non-Tone
!!!LING_GROUP: Algonquin
**kern	**kern
*staff2	*staff1
*clefF4	*clefF4
*k[f#]	*k[f#]
*M2/4	*M2/4
16r	16d\
=1	=1
8GG/L	8.d\L
8GG/J	.
.	16d\Jk
8GG/L	8d\L
8GG/J	8d\J
=2||	=2||
*M3/4	*M3/4
8GG/L	16d\LK
.	8.d\J
8GG/J	.
8GG/L	12B\L
.	12A\
8GG/J	.
.	12G\J
8GG/L	4G\
8GG/J	.
=3||	=3||
*M2/4	*M2/4
2r	16E\LK
.	8G\
.	16G\Jk
.	4G\
=4||	=4||
*M3/4	*M3/4
2.r	16B\LK
.	8.d\J
.	8B\L
.	24A\K
.	12G\J
.	8.G\L
.	16E\Jk
=5||	=5||
*M2/4	*M2/4
2r	8.G\L
.	16G\Jk
.	8G\L
.	8G\J
=6||	=6||
*M3/4	*M3/4
2.r	8G\L
.	8G\J
.	8E\L
.	24D\K
.	12D\J
.	4D\
=7	=7
2.r	8.E-\L
.	16E-\Jk
.	8.E-\L
.	16E-\Jk
.	4E-\
=8||	=8||
*M2/4	*M2/4
2r	4D\
.	4BB/
=9	=9
2r	8.GG/L
.	16GG/Jk
.	4GG/
=10	=10
2r	2GG/
==	==
*-	*-
